X:1
T:Wondrous New Year
T:Wondrous New Year
T:John Worcester (1834-1900)
T:Carl & Betty Yenetchi, 2011
T:Lyrics © 2011 Carl &amp; Betty Yenetchi. Lyrics may be freely reproduced for Christian worship, provided they are not altered, and this notice is on each copy.
C:John Worcester (1834-1900)
Z:Lyrics © 2011 Carl & Betty Yenetchi. Lyrics may be freely reproduced for
Z:Christian worship, provided they are not altered, and this notice is on each copy.
%%score ( 1 2 ) ( 3 4 )
L:1/8
Q:1/4=90
M:6/8
K:G
V:1 treble 
V:2 treble 
V:3 bass 
V:4 bass 
V:1
 D | [DG][DG][DG] [FA][GB][Ac] | [GB]3 G2 [DG] | [EG][EG][EG] [CE][CE][CE] | [B,D]4 z x | %5
w: 1.~We|all look for- ward to this|new year, Giv-|en to us by our dear|Lord.|
w: 2.~O|what a bless- ing is this|new year, Filled|with joy and peace \- for|us,|
w: 3.~What|a jo- y- ous time of|true peace, Keep-|ing with \- the prop- he-|cy,|
 [B,D] x5 | [CE][CE][CE] [EG][DF][CE] | [CE]3 [B,D]2 [B,D]/[B,D]/ | [A,D]2 [A,D] [CE]2 [CD] | %9
w: A|year for us all to be|grow- ing in spir-|it and \- in|
w: Pre-|par- ing our hearts for the|com- ing Of a|won- dr- ous new|
w: Of|lov- ing each oth- er we|in- crease, A- nd|lov- ing hearts ne’er|
 [B,D]4 z [B,D] | [CE][CE][CE] [CF][CF][CF] | [DG]3 [EG]2 [EG] | [FA][GB][Ac] [Bd]2 [Ac] | %13
w: love, A|year for us all to be|learn- ing, The|things that the Lord will|
w: time. New|glor- i- ous bells will be|ring- ing, Our|voi- ces sing loud and|
w: cease. An-|gel- ic re- frains make our|hearts new, Filled|wi- th such truth di-|
 [GB]4 z [GB]/[GB]/ | [GB]2 [GB] [FB]2 [FA]/[FA]/ | [EA]3 [EG]2 [DF]/[CE]/ | [B,D]2 [DG] (FE)[DF] | %17
w: teach. Al- l|things full of lo- ve|so true, Th- e|things He’d have * us|
w: clear, Spread- ing|love from our Lord and|Sav- ior, The \-|One who loves * us|
w: vine. Lo- ve|comes sure- ly from \-|Heav- en, A heal-|ing love so * sub-|
 [DG]6 |] %18
w: do.|
w: all.|
w: lime|
V:2
 D | x6 | x6 | x6 | x6 | x6 | x6 | x6 | x6 | x6 | x6 | x6 | x6 | x6 | x6 | x6 | x3 D2 x | x6 |] %18
V:3
 D, | [G,B,][G,B,][G,B,] [D,D]2 [D,D] | [G,D]3 [G,B,]2 [G,B,] | %3
 [C,C][C,C][C,C] [C,G,][C,G,][C,G,] | [G,,G,]4 z [G,,G,] | [C,G,][C,G,][C,G,] [C,C][C,G,][C,G,] | %6
 [D,G,]3 [D,G,]2 [D,G,]/[D,G,]/ | [D,F,]2 [D,F,] [D,F,]2 [D,F,] | [G,,G,]4 z G, | %9
 [C,G,][C,G,][C,G,] [A,,A,][A,,A,][A,,A,] | [B,,G,]3 [E,B,]2 [E,B,] | [D,D]2 [D,D] [D,D]2 [D,D] | %12
 [G,D]4 z [D,D]/[D,D]/ | [E,E]2 [E,E] [B,^D]2 [B,D]/[B,D]/ | [CE]3 [C,C]2 [A,,G,]/[A,,A,]/ | %15
 [D,B,]2 [D,B,] [D,A,]2 [D,C] | [G,,G,B,]6 | x6 |] %18
V:4
 D, | x6 | x6 | x6 | x6 | x6 | x6 | x6 | x6 | x6 | x6 | x6 | x6 | x6 | x6 | x6 | x6 | x6 |] %18

